X: 10686
T: Down The Lane
R: jig
M: 6/8
K: Dmajor
afd afd|cde Ace|gfe bag|fge def|
afd afd|cde Ace|gfe bag|fge d2f:|
~e3 Ace|~f3 def|~g3 ege|~f3 def|
~e3 Ace|~f3 def|gfe bag|fge d2f:|

